!!!!SEGMENT: pl-lzu--m-15111--001-018_noskowski-zygmunt--spiewnik-dla-dzieci-op-34-18-wielkanoc.krn
!!!cenid: 18xx:4715
!!!COM: Noskowski, Zygmunt
!!!COM-rismID: pe106604
!!!CDT: 1846/05/02-1909/07/23
!!!CNT: Polish
!!!GTL: Śpiewnik dla dzieci, op. 34
!!!OTL: 18. Wielkanoc
!!!OMV: 018
!!!PDT: 1890
!!!AGN: Secular; Song; Children
!!!YEC: Copyright 2022 Narodowy Instytut Fryderyka Chopina (https://polishscores.org)
!!!YEM: License CC-BY-4.0 (https://creativecommons.org/licenses/by/4.0)
!!!SMS-siglum: PL-LŹu
!!!SMS-shelfmark: M 15111
!!!SMS-variant:
!!!SMS-altvar:
!!!SMS-shelfwork: 001-018 G
!!!NIFC-rismSourceID: 1001234040
!!!NIFC-rismChildID: 1001234040
!!!NIFC-islandoraID: pl-lzu:5455
!!!URL-pdf-islandora: https://repozytorium.nifc.pl/islandora/object/pl-lzu%3A5455/datastream/PDF/view
!!!URL-scan: https://polish.musicsources.pl/pl/lokalizacje/galeria/druki-muzyczne/23228/26 @EN{Scan on Polish Music Sources Website} @PL{Skany w portalu Dziedzictwo Muzyki Polskiej w otwartym dostępie}
!!!IIIF:
!!!ONB-nifc:
!!!AIN: 1 piano 1 vox
!!!key: F
!!!OMD: Moderato.
**kern	**kern	**dynam	**kern	**text	**text	**dynam
*part2	*part2	*part2	*part1	*part1	*part1	*part1
*staff3	*staff2	*staff2,3	*staff1	*staff1	*staff1	*staff1
*I"Piano	*I"Piano	*	*I"Voice	*	*	*
*I'pf	*I'pf	*	*I'V	*	*	*
*Ipiano	*Ipiano	*	*Ivox	*	*	*
*ICklav	*ICklav	*	*ICvox	*	*	*
*IGacomp	*IGacomp	*	*IGsolo	*	*	*
*>[A,A,B]	*>[A,A,B]	*>[A,A,B]	*>[A,A,B]	*>[A,A,B]	*>[A,A,B]	*>[A,A,B]
*>A	*>A	*>A	*>A	*>A	*>A	*>A
*clefF4	*clefG2	*	*clefG2	*	*	*
*k[b-]	*k[b-]	*	*k[b-]	*	*	*
*F:	*F:	*	*F:	*	*	*
*M2/4	*M2/4	*	*M2/4	*	*	*
=1	=1	=1	=1	=1	=1	=1
*ped	*	*	*	*	*	*
!	!LO:TX:a:i:t=Umiarkowanie.	!	!	!	!	!
(8FF/	2r	p	2r	.	.	.
4C\ 4A	.	.	.	.	.	.
8F\) 8c	.	.	.	.	.	.
=2	=2	=2	=2	=2	=2	=2
(8FF/	2r	.	2r	.	.	.
4C\ 4A	.	.	.	.	.	.
8F\) 8c	.	.	.	.	.	.
=3	=3	=3	=3	=3	=3	=3
*ped	*	*	*	*v:1	*v:2	*
8FF/	(8f/ 8a	.	8a/	Świę-	Ściel-	p
!	!LO:TX:a:i:t=espressivo	!	!LO:TX:a:i:t=cantabile	!	!	!
.	.	.	.	.	.	.
4C\ 4A	4c/ 4cc	.	4cc\	-co-	-że	.
*Xped	*	*	*	*	*	*
8F\ 8c	8d/) 8b-	.	8b-\	-ne	się	.
=4	=4	=4	=4	=4	=4	=4
*ped	*	*	*	*	*	*
8FF/	(8e/ 8g	.	8g/	ja-	o-	.
4C\ 4G	4d/ 4cc	.	4cc\	-jecz-	-bru-	.
*Xped	*	*	*	*	*	*
8G\ 8c	8e/) 8b-	.	8b-\	-ko,	-sie	.
!!LO:LB:g=original
=5	=5	=5	=5	=5	=5	=5
*ped	*	*	*	*v:1	*v:2	*
*	*^	*	*	*	*	*
8FF/	(8a/L	8f\	.	8a/	Śli-	Ja-	.
4C\ 4A	16g/L	4c\	.	(16g/LL	-czna	-ko	.
.	16f/JJ	.	.	16f/JJ)	.	.	.
.	8e/L	.	.	8e/	ma-	śnie-	.
*Xped	*	*	*	*	*	*	*
8F\ 8A	8f/J)	8c\	.	8f/	-lo-	-żek	.
*	*v	*v	*	*	*	*	*
=6	=6	=6	=6	=6	=6	=6
*ped	*	*	*	*	*	*
8FF/	(>8g/	.	8g/	-wan-	bia-	.
4C\ 4B-	4.e/) 4.cc	.	4cc\	-ka!	-ły,	.
*Xped	*	*	*	*	*	*
8G\ 8c	.	.	8r	.	.	.
=7	=7	=7	=7	=7	=7	=7
*ped	*	*	*	*	*	*
8FF/	(>8f/L 8a	.	8a/	Śpie-	Mo-	.
4C\ 4A	8d/ 8bn	.	8bn\	-wam	-jej	.
.	8c/ 8cc	.	8cc\	so-	ma-	.
*Xped	*	*	*	*	*	*
8F\ 8c	8f/J) 8a	.	8a/	-bie,	-my	.
=8	=8	=8	=8	=8	=8	=8
*ped	*	*	*	*	*	*
8FF/	(>8e/L 8g	.	8g/	ska-	rącz-	.
4C\ 4G	8d/ 8bn	.	8bn/	-czę	-ki	.
.	8c/ 8cc	.	8cc\	so-	dro-	.
*Xped	*	*	*	*	*	*
8B-X\ 8c	8e/J) 8g	.	8g,/	-bie	-gie	.
!!LO:LB:g=original
=9	=9	=9	=9	=9	=9	=9
*ped	*	*	*	*v:1	*v:2	*
8FF/	(>8a/L	.	8a/	Od	Cie-	.
4C\ 4A	16c/L 16g	.	(16g/LL	sa-	-bie	.
.	16f/JJ	.	16f/JJ)	.	.	.
.	8d/L	.	8d/	-me-	roz-	.
*Xped	*	*	*	*	*	*
8G\ 8B-	8c/J 8e	.	8e/	-go	-kła-	.
=10	=10	=10	=10	=10	=10	=10
*ped	*	*	*	*	*	*
8FF/	8f/	.	8f/	ran-	-da-	.
4F\ 4A	4c/) 4a	.	4a/	-ka.	-ły.	.
*Xped	*	*	*	*	*	*
8F\ 8A	8r	.	8r	.	.	.
=11	=11	=11	=11	=11	=11	=11
*ped	*	*	*	*	*	*
8CC/	8b-/	.	8b-/	We-	Roz-	.
4C\ 4B-	4e/ 4a	.	4a/	-so-	-kła-	.
*Xped	*	*	*	*	*	*
8C\ 8B-	8e/ 8g	.	8g/	-ły	-da-	.
=12	=12	=12	=12	=12	=12	=12
*ped	*	*	*	*	*	*
8CC/	8f#X/	.	8f#X/	dzień	-ły	.
4C\ 4B-	4e/ 4g	.	4g/	na-	cie-	.
*Xped	*	*	*	*	*	*
8C\ 8B-	8e/ 8a	.	8a,/	-stał,	-bie,	.
!!LO:PB:g=original
=13	=13	=13	=13	=13	=13	=13
*ped	*	*	*	*v:1	*v:2	*
8C/	(8.b-/L	.	8.b-\	Za-	Na	.
4B-\ 4e	.	.	.	.	.	.
.	16a/Jk	.	16a/	-dźwię-	tym	.
.	8b-\L	.	8b-\	-cza-	dłu-	.
*Xped	*	*	*	*	*	*
8B-\ 8c 8e	8dd\J	.	8dd\	-ły	-gim	.
=14	=14	=14	=14	=14	=14	=14
*ped	*	*	*	*	*	*
8FF/	4cc\	.	4cc\	dzwo-	sto-	.
4A\ 4c 4f	.	.	.	.	.	.
.	8a/)	.	8a/	-ny!	-le,	.
*Xped	*	*	*	*	*	*
8A\ 8c 8f	8r	.	8r	.	.	.
=15	=15	=15	=15	=15	=15	=15
*ped	*	*	*	*	*	*
8E-X\	(>8.g/L	<	8.g/	Ko-	Że-	<
4F\ 4A 4c	.	.	.	.	.	.
.	16f/Jk	.	16f/	-łem,	-by	.
.	8a/L	[	8a/	ko-	by-	[
*Xped	*	*	*	*	*	*
8F\ 8A 8c	8cc/J)	.	8cc\	-łem	-ło	.
!!LO:LB:g=original
=16	=16	=16	=16	=16	=16	=16
*ped	*	*	*	*v:1	*v:2	*
!	!	!LO:DY:rj	!	!	!	!LO:DY:rj
8D\L	(8dd\L	mf	8dd\	bo-	dla	f
8F\J 8B- 8d	8ee\J	.	8ee\	-ró-	sie-	.
8GG\L	8ff\L	.	8ff\	-we-	-rot-	.
*Xped	*	*	*	*	*	*
8F\J 8B- 8d	16ee\L	.	(16ee\LL	-czki,	-ki	.
.	16dd\JJ)	.	16dd\JJ)	.	.	.
=17	=17	=17	=17	=17	=17	=17
*ped	*	*	*	*	*	*
8AA\L	(8cc\L	>	8cc\	Jak	Miej-	>
*Xped	*	*	*	*	*	*
8F\J 8c	8dd\J)	.	8dd\	wia-	-sce	.
*ped	*	*	*	*	*	*
8CC\L	(8e/L	.	8e/	-nek	w na-	]
8C\J 8B-	16g/L	]	(16g/LL	zie-	-szem	.
*Xped	*	*	*	*	*	*
.	16b-/JJ	.	16b-/JJ)	.	.	.
=18	=18	=18	=18	=18	=18	=18
*ped	*	*	*	*	*	*
!	!	!	!	!	!	!LO:DY:rj
8FF/	16a/LL	p	(16a/LL	-lo-	ko-	p
.	16g/JJ	.	16g/JJ)	.	.	.
4F\ 4A	4c/) 4f	.	4f/	-ny.	-le.	.
8F\ 8A	8r	.	8r	.	.	.
=19:|!	=19:|!	=19:|!	=19:|!	=19:|!	=19:|!	=19:|!
*>B	*>B	*>B	*>B	*>B	*>B	*>B
2FF;/ 2C	2A;/ 2f	.	2r;	.	.	.
==	==	==	==	==	==	==
*-	*-	*-	*-	*-	*-	*-
!!!system-decoration: p1{p2}
!!!RDF**kern: > = above
!!!RDF**kern: < = below
!!!ENC: Andrzej Gręziak
!!!END: 2025-03-05
!!!ENC: Marta Lawrence
!!!END: 2025-03-20
